public/images/poses-sm/LordoftheFishes.svg

<svg width="800" height="900" fill="none" xmlns="http://www.w3.org/2000/svg"><path d="M349.89 355.807c-15.166 4.802-41.063 10.35-57.713 55.458-16.644 45.1-43.686 96.161-63.292 125.739-19.608 29.576-33.672 107.976-57.72 129.787-24.044 21.81-75.757 17.473-72.15 32.447 3.608 14.971 51.024 3.605 68.542 3.605 14.43 0 19.525-14.569 28.86-25.237 25.251-28.84 62.341-111.319 67.646-128.998 5.521-18.385 66.14-107.353 79.131-120.5 12.988-13.146 30.187-47.529 30.187-47.529l-23.491-24.772Z" fill="#fff" stroke="#000" stroke-width="5" stroke-miterlimit="10"/><path d="M349.89 355.807c-15.166 4.802-41.063 10.35-57.713 55.458-16.644 45.1-43.686 96.161-63.292 125.739-19.608 29.576-33.672 107.976-57.72 129.787-24.044 21.81-75.757 17.473-72.15 32.447 3.608 14.971 51.024 3.605 68.542 3.605 14.43 0 19.525-14.569 28.86-25.237 25.251-28.84 62.341-111.319 67.646-128.998 5.521-18.385 66.14-107.353 79.131-120.5 12.988-13.146 30.187-47.529 30.187-47.529l-23.491-24.772Z" stroke="#000" stroke-width="5" stroke-miterlimit="10"/><path d="M494.645 428.125c-13.31-38.825-6.708-72.319-6.708-72.319s-15.331-4.074-33.115-17.921c-17.752-13.878-13.313-60.638-13.313-60.638s-.903.18-22.549.18c-21.645 0-22.798-.18-22.798-.18s4.654 46.759-13.096 60.638c-17.749 13.847-33.116 17.921-33.116 17.921s6.637 33.492-6.711 72.319c0 0 12.446 82.237-4.184 152.106 0 0 34.956 13.844 79.905 13.844s79.904-13.844 79.904-13.844c-16.661-69.869-4.219-152.106-4.219-152.106Z" fill="#fff" stroke="#000" stroke-width="5" stroke-miterlimit="10"/><path d="M494.645 428.125c-13.31-38.825-6.708-72.319-6.708-72.319s-15.331-4.074-33.115-17.921c-17.752-13.878-13.313-60.638-13.313-60.638s-.903.18-22.549.18c-21.645 0-22.798-.18-22.798-.18s4.654 46.759-13.096 60.638c-17.749 13.847-33.116 17.921-33.116 17.921s6.637 33.492-6.711 72.319c0 0 12.446 82.237-4.184 152.106 0 0 34.956 13.844 79.905 13.844s79.904-13.844 79.904-13.844c-16.661-69.869-4.219-152.106-4.219-152.106Z" stroke="#000" stroke-width="5" stroke-miterlimit="10"/><path d="M367.641 348.406s19.271 28.99 51.583 28.99c32.313 0 51.585-28.99 51.585-28.99" stroke="#000" stroke-width="5" stroke-miterlimit="10"/><path d="M449.252 263.635c7.47-11.371 2.604-23.37 5.857-37.971 5.16-23.191-21.856-48.16-48.417-48.396-35.077-.313-45.022 124.334-24.925 127.826 11.906 2.07 34.419-6.587 51.624-25.42 5.529-6.058 15.861-16.039 15.861-16.039Z" fill="#fff" stroke="#000" stroke-width="5" stroke-miterlimit="10"/><path d="M449.252 263.635c7.47-11.371 2.604-23.37 5.857-37.971 5.16-23.191-21.856-48.16-48.417-48.396-35.077-.313-45.022 124.334-24.925 127.826 11.906 2.07 34.419-6.587 51.624-25.42 5.529-6.058 15.861-16.039 15.861-16.039Z" stroke="#000" stroke-width="5" stroke-miterlimit="10"/><path d="M391.108 190.858c-.981 21.92 12.533 62.581 40.494 57.197 31.436-6.052 17.623 11.598 14.816 17.255-2.803 5.662-18.547 15.671-15.574 17.527 2.976 1.855 46.651-11.147 52.906-42.435 6.257-31.295-.358-48.234-16.106-59.024-15.748-10.795-49.652-14.688-66.649-5.669-16.997 9.019-9.887 15.149-9.887 15.149Z" fill="#100200" stroke="#000" stroke-width="5" stroke-miterlimit="10"/><path d="M467.905 196.442c-3.681-14.7-1.667-51.135 36.913-37.648 31.694 11.083 30.438-3.566 58.449-6.182 22.511-2.105 37.174 26.736 9.507 63.823-25.177 33.754-40.87 13.006-61.817-5.006-20.951-18.011-43.052-14.987-43.052-14.987Z" fill="#100200" stroke="#000" stroke-width="5" stroke-miterlimit="10"/><path d="m436.418 704.659 182.072-34.262s28.86-14.422 36.076-21.631c7.215-7.21-14.431-18.027-14.431-18.027l-137.083 18.027" fill="#fff"/><path d="m436.418 704.659 182.072-34.262s28.86-14.422 36.076-21.631c7.215-7.21-14.431-18.027-14.431-18.027l-137.083 18.027" stroke="#000" stroke-width="5" stroke-miterlimit="10"/><path d="m436.418 704.659 182.072-34.262s28.86-14.422 36.076-21.631c7.215-7.21-14.431-18.027-14.431-18.027l-137.083 18.027" stroke="#000" stroke-width="5" stroke-miterlimit="10"/><path d="M649.153 650.566s-12.842-3.675-21.498-14.928c-.866-1.116-1.697-2.267-2.455-3.531-2.305-3.893-4.111-8.509-4.907-13.987-.612-4.327-1.226-11.034-1.909-19.181-3.139-39.225-7.179-112.48-16.128-121.422-10.823-10.816-32.469-50.472-86.58 7.209-54.111 57.684-101.007 97.342-101.007 97.342l-75.758-3.605s-36.075 118.972 54.113 133.392c15.477 2.486 30.52-.795 44.842-7.898h.035c36.762-18.241 68.721-61.826 90.514-98.6 19.189-32.302 28.746-53.933 28.746-53.933-1.18 3.255 3.439 28.771 15.479 49.642 8.317 14.422 12.153 31.908 20.849 43.805a49.17 49.17 0 0 0 1.551 2.091s.112.105.327.323c1.371 1.549 6.887 8.257 6.887 17.703 0 10.815 57.72 10.815 68.542 7.21 10.822-3.606 7.217-14.42-21.643-21.632Z" fill="#fff" stroke="#000" stroke-width="5" stroke-miterlimit="10"/><path d="M649.153 650.566s-12.842-3.675-21.498-14.928c-.866-1.116-1.697-2.267-2.455-3.531-2.305-3.893-4.111-8.509-4.907-13.987-.612-4.327-1.226-11.034-1.909-19.181-3.139-39.225-7.179-112.48-16.128-121.422-10.823-10.816-32.469-50.472-86.58 7.209-54.111 57.684-101.007 97.342-101.007 97.342l-75.758-3.605s-36.075 118.972 54.113 133.392c15.477 2.486 30.52-.795 44.842-7.898h.035c36.762-18.241 68.721-61.826 90.514-98.6 19.189-32.302 28.746-53.933 28.746-53.933-1.18 3.255 3.439 28.771 15.479 49.642 8.317 14.422 12.153 31.908 20.849 43.805a49.17 49.17 0 0 0 1.551 2.091s.112.105.327.323c1.371 1.549 6.887 8.257 6.887 17.703 0 10.815 57.72 10.815 68.542 7.21 10.822-3.606 7.217-14.42-21.643-21.632Z" stroke="#000" stroke-width="5" stroke-miterlimit="10"/><path d="M437.902 703.959c36.762-18.241 68.722-61.826 90.515-98.6 12.443-1.443 27.845-3.028 44.227-4.293 14.969-1.116 30.734-1.982 45.742-2.125 33.911-.395 63.961 2.704 72.256 13.772 21.645 28.841 14.43 61.288-64.935 86.525-79.364 25.236-137.083 28.841-137.083 28.841s-3.606 0-10.822 10.815c-7.215 10.816-36.074 14.423-28.858-7.209 7.212-21.631 3.605-32.447 25.25-36.052 21.645-3.604 50.504-28.841 64.935-21.632 7.578 3.785 23.198-9.158 42.571-21.81 0 0 33.186-21.452 51.224-17.847" fill="#fff"/><path d="M437.902 703.959c36.762-18.241 68.722-61.826 90.515-98.6 12.443-1.443 27.845-3.028 44.227-4.293 14.969-1.116 30.734-1.982 45.742-2.125 33.911-.395 63.961 2.704 72.256 13.772 21.645 28.841 14.43 61.288-64.935 86.525-79.364 25.236-137.083 28.841-137.083 28.841s-3.606 0-10.822 10.815c-7.215 10.816-36.074 14.423-28.858-7.209 7.212-21.631 3.605-32.447 25.25-36.052 21.645-3.604 50.504-28.841 64.935-21.632 7.578 3.785 23.198-9.158 42.571-21.81 0 0 33.186-21.452 51.224-17.847" stroke="#000" stroke-width="5" stroke-miterlimit="10"/><path d="M437.902 703.959c36.762-18.241 68.722-61.826 90.515-98.6 12.443-1.443 27.845-3.028 44.227-4.293 14.969-1.116 30.734-1.982 45.742-2.125 33.911-.395 63.961 2.704 72.256 13.772 21.645 28.841 14.43 61.288-64.935 86.525-79.364 25.236-137.083 28.841-137.083 28.841s-3.606 0-10.822 10.815c-7.215 10.816-36.074 14.423-28.858-7.209 7.212-21.631 3.605-32.447 25.25-36.052 21.645-3.604 50.504-28.841 64.935-21.632 7.578 3.785 23.198-9.158 42.571-21.81 0 0 33.186-21.452 51.224-17.847" stroke="#000" stroke-width="5" stroke-miterlimit="10"/><path d="M654.565 299.059c-2.274 18.241-3.606 36.053-3.606 36.053s-10.824 155.024-25.254 191.076c-6.165 15.462-15.69 20.984-24.526 22.243-11.152 1.589-22.187-3.714-28.86-12.832-20.348-27.911-66.164-95.867-77.673-107.47-13.31-38.83-6.708-72.322-6.708-72.322 15.188 4.795 41.054 10.344 57.72 55.444 16.628 45.107 27.958 56.536 47.581 86.095 0 0 28.859-155.023 25.252-165.839-2.315-6.943-5.263-24.285-4.495-35.812.648-9.76 2.871-19.378 7.012-28.236 17.724-38.004 37.164 2.759 33.557 31.6Z" fill="#fff" stroke="#000" stroke-width="5" stroke-miterlimit="10"/><path d="M654.565 299.059c-2.274 18.241-3.606 36.053-3.606 36.053s-10.824 155.024-25.254 191.076c-6.165 15.462-15.69 20.984-24.526 22.243-11.152 1.589-22.187-3.714-28.86-12.832-20.348-27.911-66.164-95.867-77.673-107.47-13.31-38.83-6.708-72.322-6.708-72.322 15.188 4.795 41.054 10.344 57.72 55.444 16.628 45.107 27.958 56.536 47.581 86.095 0 0 28.859-155.023 25.252-165.839-2.315-6.943-5.263-24.285-4.495-35.812.648-9.76 2.871-19.378 7.012-28.236 17.724-38.004 37.164 2.759 33.557 31.6ZM412.867 583.871l-25.254 25.237" stroke="#000" stroke-width="5" stroke-miterlimit="10"/><path d="m412.867 583.871-25.254 25.237" stroke="#000" stroke-width="5" stroke-miterlimit="10" stroke-linecap="square"/><path d="M558.523 667.699s-8.846 27.989 7.525 47.79Z" fill="#fff"/><path d="M558.523 667.699s-8.846 27.989 7.525 47.79" stroke="#000" stroke-width="5" stroke-miterlimit="10"/><path d="M558.523 667.699s-8.846 27.989 7.525 47.79" stroke="#000" stroke-width="5" stroke-miterlimit="10"/></svg>

<svg width="800" height="900" viewBox="0 0 800 900" fill="none" xmlns="http://www.w3.org/2000/svg">
<path d="M349.89 355.807C334.724 360.609 308.827 366.157 292.177 411.265C275.533 456.365 248.491 507.426 228.885 537.004C209.277 566.58 195.213 644.98 171.165 666.791C147.121 688.601 95.4081 684.264 99.0153 699.238C102.623 714.209 150.039 702.843 167.557 702.843C181.987 702.843 187.082 688.274 196.417 677.606C221.668 648.766 258.758 566.287 264.063 548.608C269.584 530.223 330.203 441.255 343.194 428.108C356.182 414.962 373.381 380.579 373.381 380.579L349.89 355.807Z" fill="white" stroke="black" stroke-width="5" stroke-miterlimit="10"/>
<path d="M349.89 355.807C334.724 360.609 308.827 366.157 292.177 411.265C275.533 456.365 248.491 507.426 228.885 537.004C209.277 566.58 195.213 644.98 171.165 666.791C147.121 688.601 95.4081 684.264 99.0153 699.238C102.623 714.209 150.039 702.843 167.557 702.843C181.987 702.843 187.082 688.274 196.417 677.606C221.668 648.766 258.758 566.287 264.063 548.608C269.584 530.223 330.203 441.255 343.194 428.108C356.182 414.962 373.381 380.579 373.381 380.579L349.89 355.807Z" stroke="black" stroke-width="5" stroke-miterlimit="10"/>
<path d="M494.645 428.125C481.335 389.3 487.937 355.806 487.937 355.806C487.937 355.806 472.606 351.732 454.822 337.885C437.07 324.007 441.509 277.247 441.509 277.247C441.509 277.247 440.606 277.427 418.96 277.427C397.315 277.427 396.162 277.247 396.162 277.247C396.162 277.247 400.816 324.006 383.066 337.885C365.317 351.732 349.95 355.806 349.95 355.806C349.95 355.806 356.587 389.298 343.239 428.125C343.239 428.125 355.685 510.362 339.055 580.231C339.055 580.231 374.011 594.075 418.96 594.075C463.909 594.075 498.864 580.231 498.864 580.231C482.203 510.362 494.645 428.125 494.645 428.125Z" fill="white" stroke="black" stroke-width="5" stroke-miterlimit="10"/>
<path d="M494.645 428.125C481.335 389.3 487.937 355.806 487.937 355.806C487.937 355.806 472.606 351.732 454.822 337.885C437.07 324.007 441.509 277.247 441.509 277.247C441.509 277.247 440.606 277.427 418.96 277.427C397.315 277.427 396.162 277.247 396.162 277.247C396.162 277.247 400.816 324.006 383.066 337.885C365.317 351.732 349.95 355.806 349.95 355.806C349.95 355.806 356.587 389.298 343.239 428.125C343.239 428.125 355.685 510.362 339.055 580.231C339.055 580.231 374.011 594.075 418.96 594.075C463.909 594.075 498.864 580.231 498.864 580.231C482.203 510.362 494.645 428.125 494.645 428.125Z" stroke="black" stroke-width="5" stroke-miterlimit="10"/>
<path d="M367.641 348.406C367.641 348.406 386.912 377.396 419.224 377.396C451.537 377.396 470.809 348.406 470.809 348.406" stroke="black" stroke-width="5" stroke-miterlimit="10"/>
<path d="M449.252 263.635C456.722 252.264 451.856 240.265 455.109 225.664C460.269 202.473 433.253 177.504 406.692 177.268C371.615 176.955 361.67 301.602 381.767 305.094C393.673 307.164 416.186 298.507 433.391 279.674C438.92 273.616 449.252 263.635 449.252 263.635Z" fill="white" stroke="black" stroke-width="5" stroke-miterlimit="10"/>
<path d="M449.252 263.635C456.722 252.264 451.856 240.265 455.109 225.664C460.269 202.473 433.253 177.504 406.692 177.268C371.615 176.955 361.67 301.602 381.767 305.094C393.673 307.164 416.186 298.507 433.391 279.674C438.92 273.616 449.252 263.635 449.252 263.635Z" stroke="black" stroke-width="5" stroke-miterlimit="10"/>
<path d="M391.108 190.858C390.127 212.778 403.641 253.439 431.602 248.055C463.038 242.003 449.225 259.653 446.418 265.31C443.615 270.972 427.871 280.981 430.844 282.837C433.82 284.692 477.495 271.69 483.75 240.402C490.007 209.107 483.392 192.168 467.644 181.378C451.896 170.583 417.992 166.69 400.995 175.709C383.998 184.728 391.108 190.858 391.108 190.858Z" fill="#100200" stroke="black" stroke-width="5" stroke-miterlimit="10"/>
<path d="M467.905 196.442C464.224 181.742 466.238 145.307 504.818 158.794C536.512 169.877 535.256 155.228 563.267 152.612C585.778 150.507 600.441 179.348 572.774 216.435C547.597 250.189 531.904 229.441 510.957 211.429C490.006 193.418 467.905 196.442 467.905 196.442Z" fill="#100200" stroke="black" stroke-width="5" stroke-miterlimit="10"/>
<path d="M436.418 704.659L618.49 670.397C618.49 670.397 647.35 655.975 654.566 648.766C661.781 641.556 640.135 630.739 640.135 630.739L503.052 648.766" fill="white"/>
<path d="M436.418 704.659L618.49 670.397C618.49 670.397 647.35 655.975 654.566 648.766C661.781 641.556 640.135 630.739 640.135 630.739L503.052 648.766" stroke="black" stroke-width="5" stroke-miterlimit="10"/>
<path d="M436.418 704.659L618.49 670.397C618.49 670.397 647.35 655.975 654.566 648.766C661.781 641.556 640.135 630.739 640.135 630.739L503.052 648.766" stroke="black" stroke-width="5" stroke-miterlimit="10"/>
<path d="M649.153 650.566C649.153 650.566 636.311 646.891 627.655 635.638C626.789 634.522 625.958 633.371 625.2 632.107C622.895 628.214 621.089 623.598 620.293 618.12C619.681 613.793 619.067 607.086 618.384 598.939C615.245 559.714 611.205 486.459 602.256 477.517C591.433 466.701 569.787 427.045 515.676 484.726C461.565 542.41 414.669 582.068 414.669 582.068L338.911 578.463C338.911 578.463 302.836 697.435 393.024 711.855C408.501 714.341 423.544 711.06 437.866 703.957H437.901C474.663 685.716 506.622 642.131 528.415 605.357C547.604 573.055 557.161 551.424 557.161 551.424C555.981 554.679 560.6 580.195 572.64 601.066C580.957 615.488 584.793 632.974 593.489 644.871C593.996 645.592 594.501 646.275 595.04 646.962C595.04 646.962 595.152 647.067 595.367 647.285C596.738 648.834 602.254 655.542 602.254 664.988C602.254 675.803 659.974 675.803 670.796 672.198C681.618 668.592 678.013 657.778 649.153 650.566Z" fill="white" stroke="black" stroke-width="5" stroke-miterlimit="10"/>
<path d="M649.153 650.566C649.153 650.566 636.311 646.891 627.655 635.638C626.789 634.522 625.958 633.371 625.2 632.107C622.895 628.214 621.089 623.598 620.293 618.12C619.681 613.793 619.067 607.086 618.384 598.939C615.245 559.714 611.205 486.459 602.256 477.517C591.433 466.701 569.787 427.045 515.676 484.726C461.565 542.41 414.669 582.068 414.669 582.068L338.911 578.463C338.911 578.463 302.836 697.435 393.024 711.855C408.501 714.341 423.544 711.06 437.866 703.957H437.901C474.663 685.716 506.622 642.131 528.415 605.357C547.604 573.055 557.161 551.424 557.161 551.424C555.981 554.679 560.6 580.195 572.64 601.066C580.957 615.488 584.793 632.974 593.489 644.871C593.996 645.592 594.501 646.275 595.04 646.962C595.04 646.962 595.152 647.067 595.367 647.285C596.738 648.834 602.254 655.542 602.254 664.988C602.254 675.803 659.974 675.803 670.796 672.198C681.618 668.592 678.013 657.778 649.153 650.566Z" stroke="black" stroke-width="5" stroke-miterlimit="10"/>
<path d="M437.902 703.959C474.664 685.718 506.624 642.133 528.417 605.359C540.86 603.916 556.262 602.331 572.644 601.066C587.613 599.95 603.378 599.084 618.386 598.941C652.297 598.546 682.347 601.645 690.642 612.713C712.287 641.554 705.072 674.001 625.707 699.238C546.343 724.474 488.624 728.079 488.624 728.079C488.624 728.079 485.018 728.079 477.802 738.894C470.587 749.71 441.728 753.317 448.944 731.685C456.156 710.054 452.549 699.238 474.194 695.633C495.839 692.029 524.698 666.792 539.129 674.001C546.707 677.786 562.327 664.843 581.7 652.191C581.7 652.191 614.886 630.739 632.924 634.344" fill="white"/>
<path d="M437.902 703.959C474.664 685.718 506.624 642.133 528.417 605.359C540.86 603.916 556.262 602.331 572.644 601.066C587.613 599.95 603.378 599.084 618.386 598.941C652.297 598.546 682.347 601.645 690.642 612.713C712.287 641.554 705.072 674.001 625.707 699.238C546.343 724.474 488.624 728.079 488.624 728.079C488.624 728.079 485.018 728.079 477.802 738.894C470.587 749.71 441.728 753.317 448.944 731.685C456.156 710.054 452.549 699.238 474.194 695.633C495.839 692.029 524.698 666.792 539.129 674.001C546.707 677.786 562.327 664.843 581.7 652.191C581.7 652.191 614.886 630.739 632.924 634.344" stroke="black" stroke-width="5" stroke-miterlimit="10"/>
<path d="M437.902 703.959C474.664 685.718 506.624 642.133 528.417 605.359C540.86 603.916 556.262 602.331 572.644 601.066C587.613 599.95 603.378 599.084 618.386 598.941C652.297 598.546 682.347 601.645 690.642 612.713C712.287 641.554 705.072 674.001 625.707 699.238C546.343 724.474 488.624 728.079 488.624 728.079C488.624 728.079 485.018 728.079 477.802 738.894C470.587 749.71 441.728 753.317 448.944 731.685C456.156 710.054 452.549 699.238 474.194 695.633C495.839 692.029 524.698 666.792 539.129 674.001C546.707 677.786 562.327 664.843 581.7 652.191C581.7 652.191 614.886 630.739 632.924 634.344" stroke="black" stroke-width="5" stroke-miterlimit="10"/>
<path d="M654.565 299.059C652.291 317.3 650.959 335.112 650.959 335.112C650.959 335.112 640.135 490.136 625.705 526.188C619.54 541.65 610.015 547.172 601.179 548.431C590.027 550.02 578.992 544.717 572.319 535.599C551.971 507.688 506.155 439.732 494.646 428.129C481.336 389.299 487.938 355.807 487.938 355.807C503.126 360.602 528.992 366.151 545.658 411.251C562.286 456.358 573.616 467.787 593.239 497.346C593.239 497.346 622.098 342.323 618.491 331.507C616.176 324.564 613.228 307.222 613.996 295.695C614.644 285.935 616.867 276.317 621.008 267.459C638.732 229.455 658.172 270.218 654.565 299.059Z" fill="white" stroke="black" stroke-width="5" stroke-miterlimit="10"/>
<path d="M654.565 299.059C652.291 317.3 650.959 335.112 650.959 335.112C650.959 335.112 640.135 490.136 625.705 526.188C619.54 541.65 610.015 547.172 601.179 548.431C590.027 550.02 578.992 544.717 572.319 535.599C551.971 507.688 506.155 439.732 494.646 428.129C481.336 389.299 487.938 355.807 487.938 355.807C503.126 360.602 528.992 366.151 545.658 411.251C562.286 456.358 573.616 467.787 593.239 497.346C593.239 497.346 622.098 342.323 618.491 331.507C616.176 324.564 613.228 307.222 613.996 295.695C614.644 285.935 616.867 276.317 621.008 267.459C638.732 229.455 658.172 270.218 654.565 299.059Z" stroke="black" stroke-width="5" stroke-miterlimit="10"/>
<path d="M412.867 583.871L387.613 609.108" stroke="black" stroke-width="5" stroke-miterlimit="10"/>
<path d="M412.867 583.871L387.613 609.108" stroke="black" stroke-width="5" stroke-miterlimit="10" stroke-linecap="square"/>
<path d="M558.523 667.699C558.523 667.699 549.677 695.688 566.048 715.489Z" fill="white"/>
<path d="M558.523 667.699C558.523 667.699 549.677 695.688 566.048 715.489" stroke="black" stroke-width="5" stroke-miterlimit="10"/>
<path d="M558.523 667.699C558.523 667.699 549.677 695.688 566.048 715.489" stroke="black" stroke-width="5" stroke-miterlimit="10"/>
</svg>
